X:75
T:75 Murphy Delany
C:Welch MS
I:abc2nwc
M:6/8
L:1/8
K:G
G|:GFG GFG|GFG Bcd|GFG GFG|EGF EDC|
GFG GFG|GFG Bcd|efg dcB|ABG FED:|
Bcd ded|ded dcB|cde efe|efe edc|
Bcd ded|ded def|gfe dcB|ABG FED:|


